X:53
T:Merrily Danced the Quaker's Wife
Z:Jack Campin, http://www.campin.me.uk/
F:Jack Campin's Nine-Note Tunebook
% last edit 03-02-2013
M:6/8
L:1/8
Q:3/8=112
K:G
D|GAB D2B|c2A BGE|GAB D2G|A3- A2
E|GAB D2B|c2A BGE|GAB D2E|G3- G2:|
A|BGG AGG|BGG AGE|GAB DEG|A3- A2
A|BGG AGG|BGG AGE|GAB D2E|G3- G2:|

